X: 1
T:Jouissance Vous Donneray
R:Bourr\'ee
O:France
M:3/4
K:G
E2E2E2 | G2FED2 | G2AFGA | B4B2 |\
BA GA Bc | d2 dc B2 | cB AG AF | G4 G2 :|
K:Em
|: \
G2 F2 G2 | E4 E2 | FG AG FE | D4D2 | \
dc BA GF | G2 cB AG | FE DE ED | E4 E2 :|
